www/assets/icons/fact_check.svg

<svg xmlns="http://www.w3.org/2000/svg" width="24" height="24" viewBox="0 0 24 24" fill='currentColor'><path fill-rule="evenodd" d="M20 3H4c-1.1 0-2 .9-2 2v14c0 1.1.9 2 2 2h16c1.1 0 2-.9 2-2V5c0-1.1-.9-2-2-2M10 17H5v-2h5zm0-4H5v-2h5zm0-4H5V7h5zm4.82 6L12 12.16l1.41-1.41 1.41 1.42L17.99 9l1.42 1.42z" clip-rule="evenodd"/></svg>

<svg width="24" height="24" viewBox="0 0 24 24" xmlns="http://www.w3.org/2000/svg" fill='currentColor'><path fill-rule="evenodd" clip-rule="evenodd" d="M20 3H4C2.9 3 2 3.9 2 5V19C2 20.1 2.9 21 4 21H20C21.1 21 22 20.1 22 19V5C22 3.9 21.1 3 20 3ZM10 17H5V15H10V17ZM10 13H5V11H10V13ZM10 9H5V7H10V9ZM14.82 15L12 12.16L13.41 10.75L14.82 12.17L17.99 9L19.41 10.42L14.82 15Z"/></svg>
